; generated by PrusaSlicer 2.9.2 on 2026-01-06 at 08:37:35 UTC


;
;
; 

; external perimeters extrusion width = 0.45mm
; perimeters extrusion width = 0.45mm
; infill extrusion width = 0.45mm
; solid infill extrusion width = 0.45mm
; top infill extrusion width = 0.40mm
; first layer extrusion width = 0.42mm

; external perimeters extrusion width = 0.45mm
; perimeters extrusion width = 0.45mm
; infill extrusion width = 0.45mm
; solid infill extrusion width = 0.45mm
; top infill extrusion width = 0.40mm
; first layer extrusion width = 0.42mm

; external perimeters extrusion width = 0.45mm
; perimeters extrusion width = 0.45mm
; infill extrusion width = 0.45mm
; solid infill extrusion width = 0.45mm
; top infill extrusion width = 0.40mm
; first layer extrusion width = 0.42mm

; external perimeters extrusion width = 0.45mm
; perimeters extrusion width = 0.45mm
; infill extrusion width = 0.45mm
; solid infill extrusion width = 0.45mm
; top infill extrusion width = 0.40mm
; first layer extrusion width = 0.42mm

; external perimeters extrusion width = 0.45mm
; perimeters extrusion width = 0.45mm
; infill extrusion width = 0.45mm
; solid infill extrusion width = 0.45mm
; top infill extrusion width = 0.40mm
; first layer extrusion width = 0.42mm

; external perimeters extrusion width = 0.45mm
; perimeters extrusion width = 0.45mm
; infill extrusion width = 0.45mm
; solid infill extrusion width = 0.45mm
; top infill extrusion width = 0.40mm
; first layer extrusion width = 0.42mm

; external perimeters extrusion width = 0.45mm
; perimeters extrusion width = 0.45mm
; infill extrusion width = 0.45mm
; solid infill extrusion width = 0.45mm
; top infill extrusion width = 0.40mm
; first layer extrusion width = 0.42mm

M73 P0 R109
M73 Q0 S109
M201 X1000 Y1000 Z200 E5000 ; sets maximum accelerations, mm/sec^2
M203 X200 Y200 Z12 E120 ; sets maximum feedrates, mm / sec
M204 S1250 T1250 ; sets acceleration (S) and retract acceleration (R), mm/sec^2
M205 X8.00 Y8.00 Z0.40 E4.50 ; sets the jerk limits, mm/sec
M205 S0 T0 ; sets the minimum extruding and travel feed rate, mm/sec

; printing object Test_1 id:5 copy 0
; stop printing object Test_1 id:5 copy 0
; printing object Test_2 id:6 copy 0
; stop printing object Test_2 id:6 copy 0
; printing object Left v7 id:0 copy 0
; stop printing object Left v7 id:0 copy 0
; printing object Test_1 id:2 copy 0
; stop printing object Test_1 id:2 copy 0
; printing object Test_2 id:3 copy 0
; stop printing object Test_2 id:3 copy 0
; printing object Right v7 id:1 copy 0
; stop printing object Right v7 id:1 copy 0
; printing object Test_3 id:4 copy 0
; stop printing object Test_3 id:4 copy 0

;TYPE:Custom
M862.3 P "MK3" ; printer model check
M862.1 P0.4 ; nozzle diameter check
M115 U3.14.1 ; tell printer latest fw version
G90 ; use absolute coordinates
M83 ; extruder relative mode
M104 S215 ; set extruder temp
M140 S60 ; set bed temp
M190 S60 ; wait for bed temp
M109 S215 ; wait for extruder temp
G28 W ; home all without mesh bed level
G80 X73.7863 Y47.2395 W102.327 H115.421 ; mesh bed levelling

G1 Z0.2 F720
G1 Y-3 F1000 ; go outside print area
G92 E0
G1 X60 E9 F1000 ; intro line
G1 X100 E12.5 F1000 ; intro line

G92 E0
M221 S95

; Don't change E values below. Excessive value can damage the printer.
M907 E430 ; set extruder motor current
G21 ; set units to millimeters
G90 ; use absolute coordinates
M83 ; use relative distances for extrusion

M900 K0.05 ; Filament gcode LA 1.5
M900 K30 ; Filament gcode LA 1.0




M107
;LAYER_CHANGE
;Z:0.2
;HEIGHT:0.2
G1 E-.8 F2100
G1 Z.6 F720
G1 X82.615 Y66.045 F10800
G1 Z.2 F720
G1 E.8 F2100
M204 S800
;TYPE:Skirt/Brim
;WIDTH:0.42
G1 F1200
G1 X83.846 Y64.815 E.05456
G1 X84.383 Y64.421 E.02088
G1 X116.584 Y47.675 E1.13801
G1 X117.593 Y47.428 E.03257
G1 X122.533 Y47.428 E.15489
G1 X123.091 Y47.5 E.01764
G1 X150.797 Y54.839 E.89866
G1 X152.897 Y55.581 E.06983
G1 X155.544 Y56.818 E.09161
G1 X156.44 Y57.625 E.03781
G1 X157.274 Y59.045 E.05163
G1 X175.44 Y108.058 E1.63893
G1 X175.737 Y109.088 E.03361
M73 P0 R108
G1 X175.896 Y110.144 E.03348
G1 X175.915 Y111.221 E.03377
G1 X175.785 Y112.338 E.03526
G1 X166.101 Y156.655 E1.42232
G1 X165.51 Y157.735 E.0386
G1 X164.28 Y158.965 E.05454
G1 X162.87 Y159.602 E.04851
G1 X117.292 Y162.46 E1.43187
G1 X115.5 Y162.357 E.05628
G1 X114.064 Y161.979 E.04656
G1 X76.638 Y148.217 E1.25029
G1 X75.846 Y147.71 E.02948
G1 X74.616 Y146.48 E.05454
G1 X73.975 Y144.933 E.0525
G1 X74.02 Y93.6 E1.60951
G1 X74.366 Y91.874 E.05519
G1 X82.072 Y66.946 E.81809
G1 X82.584 Y66.097 E.03109
M204 S1000
;WIPE_START
G1 F8640
G1 X82.615 Y66.045 E-.01398
G1 X83.846 Y64.815 E-.40181
G1 X84.383 Y64.421 E-.15379
G1 X85.268 Y63.961 E-.23042
;WIPE_END
G1 Z.6 F720
G1 X162.721 Y108.132 F10800
G1 Z.2 F720
G1 E.8 F2100
M204 S800
G1 F1200
G1 X163.369 Y107.175 E.03624
G1 X164.141 Y106.414 E.03399
G1 X165.103 Y105.781 E.03611
G1 X166.111 Y105.373 E.0341
G1 X167.247 Y105.157 E.03626
G1 X168.33 Y105.167 E.03396
G1 X169.455 Y105.401 E.03603
G1 X170.437 Y105.817 E.03344
G1 X171.393 Y106.465 E.03621
G1 X172.155 Y107.237 E.03401
G1 X172.788 Y108.199 E.03611
G1 X173.184 Y109.169 E.03285
G1 X173.406 Y110.284 E.03565
G1 X173.404 Y111.402 E.03505
G1 X173.168 Y112.551 E.03678
G1 X172.752 Y113.533 E.03344
G1 X172.105 Y114.489 E.03619
G1 X171.332 Y115.25 E.03401
G1 X170.386 Y115.875 E.03555
G1 X169.4 Y116.281 E.03343
G1 X168.285 Y116.502 E.03564
G1 X167.167 Y116.5 E.03505
G1 X166.018 Y116.264 E.03678
G1 X165.036 Y115.848 E.03344
G1 X164.08 Y115.201 E.03619
G1 X163.318 Y114.428 E.03403
G1 X162.693 Y113.482 E.03555
G1 X162.288 Y112.496 E.03342
G1 X162.066 Y111.381 E.03565
G1 X162.068 Y110.263 E.03505
G1 X162.305 Y109.114 E.03678
G1 X162.697 Y108.187 E.03156
M204 S1000
G1 X163.046 Y108.378 F10800
M204 S800
G1 F1200
G1 X163.347 Y107.827 E.01969
G1 X164.009 Y107.037 E.03232
G1 X164.836 Y106.373 E.03325
G1 X165.732 Y105.905 E.03169
G1 X166.752 Y105.605 E.03334
G1 X167.799 Y105.513 E.03295
G1 X168.848 Y105.631 E.0331
G1 X169.811 Y105.934 E.03165
G1 X170.742 Y106.444 E.03328
G1 X171.532 Y107.106 E.03232
G1 X172.196 Y107.933 E.03325
G1 X172.663 Y108.825 E.03157
G1 X172.946 Y109.76 E.03063
G1 X173.056 Y110.87 E.03497
G1 X172.942 Y111.924 E.03324
G1 X172.635 Y112.907 E.03229
G1 X172.125 Y113.838 E.03328
G1 X171.476 Y114.615 E.03174
G1 X170.652 Y115.282 E.03324
G1 X169.744 Y115.759 E.03216
G1 X168.809 Y116.042 E.03063
G1 X167.699 Y116.152 E.03497
G1 X166.645 Y116.038 E.03324
G1 X165.662 Y115.731 E.03229
G1 X164.731 Y115.221 E.03328
G1 X163.953 Y114.572 E.03177
G1 X163.287 Y113.748 E.03322
G1 X162.81 Y112.84 E.03216
G1 X162.526 Y111.905 E.03064
G1 X162.417 Y110.795 E.03497
G1 X162.53 Y109.741 E.03324
G1 X162.838 Y108.758 E.0323
G1 X163.017 Y108.431 E.01169
M204 S1000
G1 X163.349 Y108.57 F10800
M204 S800
G1 F1200
G1 X163.376 Y108.507 E.00215
G1 X163.936 Y107.672 E.03152
G1 X164.602 Y107.011 E.02942
G1 X165.438 Y106.457 E.03145
G1 X166.308 Y106.101 E.02947
G1 X167.313 Y105.908 E.03209
G1 X168.232 Y105.915 E.02882
G1 X169.212 Y106.116 E.03137
G1 X170.062 Y106.472 E.02889
G1 X170.897 Y107.033 E.03154
G1 X171.557 Y107.698 E.02938
G1 X172.112 Y108.534 E.03146
G1 X172.458 Y109.373 E.02846
G1 X172.656 Y110.358 E.0315
G1 X172.656 Y111.307 E.02976
G1 X172.453 Y112.309 E.03206
G1 X172.097 Y113.158 E.02887
G1 X171.536 Y113.993 E.03154
G1 X170.871 Y114.654 E.0294
G1 X170.035 Y115.208 E.03145
G1 X169.196 Y115.555 E.02847
G1 X168.211 Y115.752 E.0315
G1 X167.262 Y115.752 E.02976
G1 X166.26 Y115.549 E.03206
G1 X165.41 Y115.193 E.02889
G1 X164.576 Y114.632 E.03152
G1 X163.915 Y113.967 E.0294
G1 X163.361 Y113.131 E.03145
G1 X163.014 Y112.292 E.02847
G1 X162.817 Y111.307 E.0315
G1 X162.817 Y110.358 E.02976
G1 X163.019 Y109.356 E.03205
G1 X163.326 Y108.625 E.02486
M204 S1000
G1 X163.666 Y108.811 F10800
M204 S800
G1 F1200
G1 X163.972 Y108.25 E.02004
G1 X164.528 Y107.585 E.02718
G1 X165.251 Y107.003 E.0291
G1 X166.002 Y106.609 E.02659
G1 X166.911 Y106.343 E.0297
G1 X167.775 Y106.267 E.02719
G1 X168.677 Y106.366 E.02845
G1 X169.503 Y106.623 E.02712
G1 X170.319 Y107.068 E.02914
G1 X170.984 Y107.624 E.02718
G1 X171.565 Y108.347 E.02908
G1 X171.959 Y109.097 E.02656
G1 X172.203 Y109.892 E.02607
G1 X172.302 Y110.85 E.0302
G1 X172.203 Y111.772 E.02907
G1 X171.946 Y112.599 E.02715
G1 X171.501 Y113.415 E.02914
G1 X170.957 Y114.068 E.02665
G1 X170.222 Y114.662 E.02963
G1 X169.472 Y115.055 E.02655
G1 X168.677 Y115.299 E.02607
G1 X167.718 Y115.398 E.03023
G1 X166.796 Y115.3 E.02907
G1 X165.969 Y115.042 E.02716
G1 X165.154 Y114.597 E.02911
G1 X164.501 Y114.053 E.02665
G1 X163.907 Y113.318 E.02963
G1 X163.514 Y112.568 E.02655
G1 X163.269 Y111.772 E.02611
G1 X163.171 Y110.815 E.03016
G1 X163.269 Y109.893 E.02907
G1 X163.527 Y109.065 E.02719
G1 X163.637 Y108.863 E.00721
M204 S1000
G1 X163.979 Y109.005 F10800
M204 S800
G1 F1200
G1 X164.031 Y108.88 E.00424
G1 X164.526 Y108.142 E.02786
G1 X165.064 Y107.608 E.02377
G1 X165.788 Y107.125 E.02729
G1 X166.506 Y106.829 E.02435
G1 X167.378 Y106.66 E.02785
G1 X168.136 Y106.664 E.02377
G1 X168.988 Y106.836 E.02725
G1 X169.688 Y107.127 E.02377
G1 X170.426 Y107.622 E.02786
G1 X170.961 Y108.16 E.02379
G1 X171.444 Y108.884 E.02729
G1 X171.733 Y109.581 E.02366
G1 X171.907 Y110.452 E.02785
G1 X171.907 Y111.213 E.02386
G1 X171.733 Y112.084 E.02785
G1 X171.442 Y112.785 E.0238
G1 X170.946 Y113.523 E.02788
G1 X170.408 Y114.057 E.02377
G1 X169.684 Y114.54 E.02729
G1 X168.988 Y114.829 E.02363
G1 X168.117 Y115.003 E.02785
G1 X167.356 Y115.003 E.02386
G1 X166.484 Y114.829 E.02788
G1 X165.784 Y114.538 E.02377
G1 X165.046 Y114.042 E.02788
G1 X164.512 Y113.505 E.02375
G1 X164.029 Y112.78 E.02731
G1 X163.739 Y112.084 E.02364
G1 X163.565 Y111.213 E.02785
G1 X163.565 Y110.452 E.02386
G1 X163.739 Y109.581 E.02785
G1 X163.956 Y109.061 E.01767
M204 S1000
;WIPE_START
G1 F8640
G1 X163.979 Y109.005 E-.01398
G1 X164.031 Y108.88 E-.03126
G1 X164.526 Y108.142 E-.20519
G1 X165.064 Y107.608 E-.17503
G1 X165.788 Y107.125 E-.20096
G1 X166.483 Y106.839 E-.17358
;WIPE_END
G1 Z.6 F720
G1 X162.094 Y118.924 F10800
G1 Z.2 F720
G1 E.8 F2100
M204 S800
G1 F1200
G1 X162.819 Y119.18 E.02411
G1 X163.258 Y119.572 E.01845
G1 X163.494 Y119.937 E.01363
G1 X163.66 Y120.5 E.0184
G1 X163.66 Y155.534 E1.09847
G1 X163.494 Y156.099 E.01846
G1 X163.248 Y156.474 E.01406
G1 X162.738 Y156.906 E.02096
G1 X162.079 Y157.114 E.02167
G1 X127.046 Y157.114 E1.09844
G1 X126.482 Y156.948 E.01843
G1 X126.106 Y156.703 E.01407
G1 X125.675 Y156.192 E.02096
G1 X125.466 Y155.534 E.02165
G1 X125.466 Y120.5 E1.09847
G1 X125.632 Y119.936 E.01843
G1 X125.877 Y119.56 E.01407
G1 X126.388 Y119.129 E.02096
G1 X127.047 Y118.92 E.02168
G1 X162.034 Y118.924 E1.09699
M204 S1000
G1 X162.034 Y119.301 F10800
M204 S800
G1 F1200
G1 X162.072 Y119.301 E.00119
G1 X162.631 Y119.508 E.01869
G1 X162.986 Y119.833 E.01509
G1 X163.283 Y120.53 E.02376
G1 X163.283 Y155.505 E1.09662
G1 X163.142 Y155.96 E.01494
G1 X162.976 Y156.213 E.00949
G1 X162.556 Y156.575 E.01739
G1 X162.05 Y156.737 E.01666
G1 X127.075 Y156.737 E1.09662
G1 X126.62 Y156.596 E.01494
G1 X126.367 Y156.43 E.00949
G1 X126.006 Y156.01 E.01736
G1 X125.843 Y155.504 E.01667
G1 X125.843 Y120.53 E1.09659
G1 X125.984 Y120.074 E.01497
G1 X126.15 Y119.822 E.00946
G1 X126.57 Y119.46 E.01739
G1 X127.076 Y119.298 E.01666
G1 X161.974 Y119.301 E1.0942
M204 S1000
G1 X161.974 Y119.678 F10800
M204 S800
G1 F1200
G1 X162.05 Y119.678 E.00238
G1 X162.441 Y119.835 E.01321
G1 X162.709 Y120.09 E.0116
G1 X162.906 Y120.561 E.01601
G1 X162.906 Y155.473 E1.09464
G1 X162.703 Y155.951 E.01628
M73 Q0 S108
G1 X162.38 Y156.241 E.01361
G1 X162.019 Y156.36 E.01192
G1 X127.107 Y156.36 E1.09464
G1 X126.629 Y156.158 E.01627
G1 X126.339 Y155.835 E.01361
G1 X126.22 Y155.473 E.01195
G1 X126.22 Y120.561 E1.09464
G1 X126.422 Y120.083 E.01627
G1 X126.746 Y119.794 E.01361
G1 X127.107 Y119.675 E.01192
G1 X161.914 Y119.678 E1.09135
M204 S1000
G1 X161.914 Y120.052 F10800
M204 S800
G1 F1200
G1 X161.998 Y120.052 E.00263
G1 X162.429 Y120.342 E.01629
G1 X162.529 Y120.597 E.00859
G1 X162.529 Y155.438 E1.09242
G1 X162.431 Y155.69 E.00848
G1 X162.197 Y155.907 E.01001
G1 X161.984 Y155.983 E.00709
G1 X127.142 Y155.983 E1.09245
G1 X126.891 Y155.885 E.00845
G1 X126.674 Y155.651 E.01001
G1 X126.597 Y155.438 E.0071
G1 X126.597 Y120.597 E1.09242
G1 X126.695 Y120.345 E.00848
G1 X126.929 Y120.128 E.01001
G1 X127.142 Y120.052 E.00709
G1 X161.854 Y120.052 E1.08837
M204 S1000
G1 X161.853 Y120.457 F10800
M204 S800
G1 F1200
G1 X162.011 Y120.457 E.00495
G1 X162.151 Y120.638 E.00717
G1 X162.123 Y155.466 E1.09201
G1 X161.942 Y155.606 E.00717
M73 P1 R108
M73 Q1 S108
G1 X127.115 Y155.577 E1.09198
G1 X126.974 Y155.396 E.00719
G1 X127.003 Y120.569 E1.09198
G1 X127.184 Y120.429 E.00717
G1 X161.793 Y120.457 E1.08514
M204 S1000
;WIPE_START
G1 F8640
G1 X161.853 Y120.457 E-.01385
G1 X162.011 Y120.457 E-.03648
G1 X162.151 Y120.638 E-.05284
G1 X162.149 Y123.656 E-.69683
;WIPE_END
G1 Z.6 F720
G1 X121.281 Y150.688 F10800
G1 Z.2 F720
G1 E.8 F2100
M204 S800
G1 F1200
G1 X121.914 Y151.65 E.03611
G1 X122.311 Y152.619 E.03283
G1 X122.532 Y153.734 E.03564
G1 X122.53 Y154.853 E.03509
G1 X122.294 Y156.002 E.03678
G1 X121.878 Y156.984 E.03344
G1 X121.231 Y157.939 E.03617
G1 X120.458 Y158.701 E.03403
G1 X119.512 Y159.326 E.03555
G1 X118.526 Y159.731 E.03342
G1 X117.411 Y159.953 E.03565
G1 X116.293 Y159.951 E.03505
G1 X115.144 Y159.714 E.03678
G1 X114.162 Y159.299 E.03343
G1 X113.206 Y158.651 E.03621
G1 X112.445 Y157.879 E.03399
G1 X111.82 Y156.933 E.03555
M73 P1 R107
G1 X111.414 Y155.947 E.03343
G1 X111.193 Y154.832 E.03564
G1 X111.195 Y153.714 E.03505
G1 X111.431 Y152.565 E.03678
G1 X111.847 Y151.583 E.03344
G1 X112.495 Y150.626 E.03624
G1 X113.268 Y149.865 E.03401
G1 X114.23 Y149.232 E.03611
G1 X115.238 Y148.824 E.0341
G1 X116.373 Y148.608 E.03623
G1 X117.456 Y148.618 E.03396
G1 X118.581 Y148.852 E.03603
G1 X119.563 Y149.268 E.03344
G1 X120.52 Y149.916 E.03624
G1 X121.239 Y150.645 E.0321
M204 S1000
G1 X120.929 Y150.894 F10800
M204 S800
G1 F1200
G1 X121.322 Y151.383 E.01967
G1 X121.789 Y152.276 E.0316
G1 X122.072 Y153.21 E.0306
G1 X122.182 Y154.321 E.035
G1 X122.069 Y155.374 E.03321
G1 X121.761 Y156.358 E.03233
G1 X121.251 Y157.289 E.03328
G1 X120.602 Y158.066 E.03174
G1 X119.778 Y158.732 E.03322
G1 X118.87 Y159.209 E.03216
G1 X117.935 Y159.493 E.03064
G1 X116.825 Y159.603 E.03497
G1 X115.771 Y159.489 E.03324
G1 X114.788 Y159.182 E.03229
G1 X113.857 Y158.672 E.03328
G1 X113.08 Y158.023 E.03174
G1 X112.414 Y157.199 E.03322
G1 X111.936 Y156.291 E.03217
G1 X111.653 Y155.356 E.03063
G1 X111.543 Y154.246 E.03497
G1 X111.657 Y153.192 E.03324
G1 X111.964 Y152.209 E.03229
G1 X112.474 Y151.278 E.03328
G1 X113.136 Y150.487 E.03234
G1 X113.963 Y149.824 E.03323
G1 X114.859 Y149.355 E.03171
G1 X115.896 Y149.052 E.03387
G1 X116.925 Y148.964 E.03238
G1 X117.975 Y149.081 E.03313
G1 X118.937 Y149.385 E.03163
G1 X119.868 Y149.894 E.03327
G1 X120.658 Y150.556 E.03232
G1 X120.892 Y150.847 E.01171
M204 S1000
G1 X120.636 Y151.101 F10800
M204 S800
G1 F1200
G1 X120.684 Y151.149 E.00213
G1 X121.238 Y151.985 E.03145
G1 X121.585 Y152.824 E.02847
G1 X121.782 Y153.809 E.0315
G1 X121.782 Y154.758 E.02976
G1 X121.579 Y155.759 E.03202
G1 X121.223 Y156.609 E.02889
G1 X120.663 Y157.443 E.0315
G1 X119.997 Y158.104 E.02942
G1 X119.161 Y158.659 E.03146
G1 X118.322 Y159.005 E.02846
G1 X117.337 Y159.203 E.0315
G1 X116.388 Y159.203 E.02976
G1 X115.386 Y159 E.03206
G1 X114.537 Y158.644 E.02887
G1 X113.702 Y158.083 E.03154
G1 X113.041 Y157.417 E.02942
G1 X112.487 Y156.582 E.03142
G1 X112.141 Y155.743 E.02846
G1 X111.943 Y154.758 E.0315
G1 X111.943 Y153.809 E.02976
G1 X112.146 Y152.807 E.03206
G1 X112.502 Y151.957 E.02889
G1 X113.063 Y151.123 E.03152
G1 X113.728 Y150.462 E.0294
G1 X114.564 Y149.908 E.03145
G1 X115.435 Y149.552 E.0295
G1 X116.421 Y149.36 E.0315
G1 X117.358 Y149.366 E.02938
G1 X118.339 Y149.566 E.03139
G1 X119.188 Y149.922 E.02887
G1 X120.023 Y150.483 E.03154
G1 X120.594 Y151.058 E.02541
M204 S1000
G1 X120.292 Y151.301 F10800
M204 S800
G1 F1200
G1 X120.692 Y151.798 E.02
G1 X121.085 Y152.547 E.02652
G1 X121.33 Y153.343 E.02611
