; generated by PrusaSlicer 2.9.4 on 2026-01-14 at 18:50:55 UTC


;
;
; 

; external perimeters extrusion width = 0.45mm
; perimeters extrusion width = 0.45mm
; infill extrusion width = 0.45mm
; solid infill extrusion width = 0.45mm
; top infill extrusion width = 0.40mm
; first layer extrusion width = 0.42mm

; external perimeters extrusion width = 0.45mm
; perimeters extrusion width = 0.45mm
; infill extrusion width = 0.45mm
; solid infill extrusion width = 0.45mm
; top infill extrusion width = 0.40mm
; first layer extrusion width = 0.42mm

; external perimeters extrusion width = 0.45mm
; perimeters extrusion width = 0.45mm
; infill extrusion width = 0.45mm
; solid infill extrusion width = 0.45mm
; top infill extrusion width = 0.40mm
; first layer extrusion width = 0.42mm

; external perimeters extrusion width = 0.45mm
; perimeters extrusion width = 0.45mm
; infill extrusion width = 0.45mm
; solid infill extrusion width = 0.45mm
; top infill extrusion width = 0.40mm
; first layer extrusion width = 0.42mm

M73 P0 R36
M73 Q0 S36
M201 X1000 Y1000 Z200 E5000 ; sets maximum accelerations, mm/sec^2
M203 X200 Y200 Z12 E120 ; sets maximum feedrates, mm / sec
M204 S1250 T1250 ; sets acceleration (S) and retract acceleration (R), mm/sec^2
M205 X8.00 Y8.00 Z0.40 E4.50 ; sets the jerk limits, mm/sec
M205 S0 T0 ; sets the minimum extruding and travel feed rate, mm/sec

; printing object TextPlatform_2 id:1 copy 0
; stop printing object TextPlatform_2 id:1 copy 0
; printing object TextPlatform_2 id:3 copy 0
; stop printing object TextPlatform_2 id:3 copy 0
; printing object Center v14 id:2 copy 0
; stop printing object Center v14 id:2 copy 0
; printing object Left v13 id:0 copy 0
; stop printing object Left v13 id:0 copy 0

;TYPE:Custom
M862.3 P "MK3S" ; printer model check
M862.1 P0.4 ; nozzle diameter check
M115 U3.14.1 ; tell printer latest fw version
G90 ; use absolute coordinates
M83 ; extruder relative mode
M104 S215 ; set extruder temp
M140 S60 ; set bed temp
M190 S60 ; wait for bed temp
M109 S215 ; wait for extruder temp
G28 W ; home all without mesh bed level
G80 X95.8261 Y73.3729 W58.3477 H63.2542 ; mesh bed levelling

G1 Z0.2 F720
G1 Y-3 F1000 ; go outside print area
G92 E0
G1 X60 E9 F1000 ; intro line
G1 X100 E12.5 F1000 ; intro line

G92 E0
M221 S95

; Don't change E values below. Excessive value can damage the printer.
M907 E430 ; set extruder motor current
G21 ; set units to millimeters
G90 ; use absolute coordinates
M83 ; use relative distances for extrusion

M900 K0.05 ; Filament gcode LA 1.5
M900 K30 ; Filament gcode LA 1.0




M107
;LAYER_CHANGE
;Z:0.2
;HEIGHT:0.2
G1 E-.8 F2100
G1 Z.6 F720
G1 X107.986 Y74.943 F10800
G1 Z.2 F720
G1 E.8 F2100
M204 S800
;TYPE:Skirt/Brim
;WIDTH:0.42
G1 F1200
G1 X108.81 Y73.927 E.04102
G1 X110.02 Y73.561 E.03964
G1 X136.27 Y73.561 E.82305
G1 X137.423 Y73.889 E.03759
G1 X142.769 Y77.208 E.1973
G1 X143.529 Y77.822 E.03063
G1 X144.224 Y78.604 E.0328
G1 X144.742 Y79.421 E.03033
G1 X152.176 Y93.73 E.50558
G1 X152.41 Y94.512 E.02559
G1 X153.985 Y109.729 E.47967
G1 X153.985 Y117.719 E.25052
G1 X153.306 Y119.304 E.05406
G1 X135.942 Y135.835 E.75171
G1 X134.433 Y136.439 E.05096
G1 X108.183 Y136.439 E.82305
G1 X106.935 Y136.048 E.04101
G1 X106.334 Y135.42 E.02725
G1 X96.354 Y119.643 E.58534
G1 X96.015 Y118.473 E.03819
G1 X96.015 Y105.533 E.40572
G1 X96.169 Y104.726 E.02576
G1 X107.964 Y74.999 E1.00276
M204 S1000
;WIPE_START
G1 F8640
G1 X107.986 Y74.943 E-.01389
G1 X108.81 Y73.927 E-.30205
G1 X110.02 Y73.561 E-.29189
G1 X110.852 Y73.561 E-.19217
;WIPE_END
G1 Z.6 F720
; printing object Center v14 id:2 copy 0
G1 X135.988 Y84.23 F10800
G1 Z.2 F720
G1 E.8 F2100
M204 S800
;TYPE:Perimeter
;WIDTH:0.419999
G1 F1200
G1 X135.721 Y84.346 E.00913
G1 X135.542 Y84.555 E.00863
G1 X135.483 Y84.807 E.00811
G1 X135.489 Y90.291 E.17195
G1 X135.571 Y91.233 E.02965
G1 X135.252 Y91.01 E.0122
G1 X134.771 Y90.795 E.01652
G1 X134.047 Y90.614 E.0234
G1 X133.379 Y90.553 E.02103
G1 X132.836 Y90.571 E.01703
G1 X132.089 Y90.697 E.02375
G1 X131.327 Y90.958 E.02525
G1 X130.704 Y91.279 E.02197
G1 X130.202 Y91.636 E.01931
G1 X129.739 Y92.065 E.01979
G1 X129.5 Y92.347 E.01159
G1 X129.187 Y92.755 E.01612
G1 X128.814 Y93.438 E.0244
G1 X128.562 Y94.132 E.02315
G1 X128.418 Y94.867 E.02348
G1 X128.384 Y95.473 E.01903
G1 X128.428 Y96.087 E.0193
G1 X128.587 Y96.828 E.02376
G1 X128.858 Y97.535 E.02374
G1 X129.23 Y98.186 E.02351
G1 X129.608 Y98.671 E.01928
G1 X130.152 Y99.199 E.02377
G1 X130.772 Y99.636 E.02378
G1 X131.451 Y99.972 E.02375
G1 X132.174 Y100.199 E.02376
G1 X132.924 Y100.311 E.02378
G1 X133.682 Y100.306 E.02377
G1 X134.345 Y100.203 E.02104
G1 X134.747 Y100.088 E.01311
G1 X135.206 Y99.887 E.01571
G1 X135.589 Y99.628 E.0145
G1 X135.512 Y100.051 E.01348
G1 X135.487 Y100.581 E.01664
G1 X135.485 Y101.213 E.01982
G1 X110.807 Y101.213 E.77376
G1 X110.807 Y97.932 E.10287
G1 X110.762 Y97.709 E.00713
G1 X110.649 Y97.539 E.0064
G1 X110.446 Y97.404 E.00764
G1 X110.008 Y97.259 E.01447
G1 X109.795 Y97.281 E.00671
G1 X109.55 Y97.432 E.00902
G1 X109.05 Y97.919 E.02188
G1 X108.565 Y98.253 E.01846
G1 X108.106 Y98.459 E.01577
G1 X107.407 Y98.623 E.02251
G1 X106.966 Y98.628 E.01383
G1 X106.461 Y98.594 E.01587
G1 X105.907 Y98.45 E.01795
G1 X105.331 Y98.162 E.02019
G1 X104.882 Y97.833 E.01745
G1 X104.402 Y97.293 E.02265
G1 X104.191 Y96.912 E.01366
G1 X103.955 Y96.397 E.01776
G1 X103.842 Y95.895 E.01613
G1 X103.814 Y95.285 E.01915
G1 X103.9 Y94.683 E.01907
G1 X104.098 Y94.108 E.01907
G1 X104.401 Y93.581 E.01906
G1 X104.798 Y93.121 E.01905
G1 X105.276 Y92.742 E.01913
G1 X105.818 Y92.46 E.01916
G1 X106.298 Y92.309 E.01578
G1 X106.795 Y92.235 E.01575
G1 X107.407 Y92.251 E.0192
G1 X108.001 Y92.381 E.01907
G1 X108.561 Y92.621 E.0191
G1 X109.066 Y92.963 E.01912
G1 X109.651 Y93.528 E.0255
G1 X109.91 Y93.616 E.00858
G1 X110.163 Y93.58 E.00801
G1 X110.57 Y93.404 E.0139
G1 X110.748 Y93.195 E.00861
G1 X110.807 Y92.948 E.00796
G1 X110.802 Y87.459 E.1721
G1 X110.72 Y86.523 E.02946
M73 Q1 S36
G1 X111.245 Y86.848 E.01936
G1 X111.543 Y86.948 E.00986
G1 X112.235 Y87.135 E.02248
G1 X112.848 Y87.195 E.01931
G1 X113.594 Y87.165 E.02341
G1 X114.193 Y87.056 E.01909
M73 P1 R36
G1 X114.772 Y86.874 E.01903
G1 X115.331 Y86.617 E.01929
G1 X115.962 Y86.214 E.02348
G1 X116.437 Y85.804 E.01967
G1 X116.832 Y85.37 E.0184
G1 X117.181 Y84.874 E.01902
G1 X117.466 Y84.339 E.01901
G1 X117.687 Y83.755 E.01958
G1 X117.874 Y82.874 E.02824
G1 X117.901 Y82.109 E.024
G1 X117.781 Y81.216 E.02825
G1 X117.554 Y80.493 E.02376
G1 X117.212 Y79.804 E.02412
G1 X116.682 Y79.078 E.02818
G1 X116.138 Y78.551 E.02375
G1 X115.519 Y78.114 E.02376
G1 X114.831 Y77.776 E.02403
G1 X113.959 Y77.519 E.0285
G1 X113.063 Y77.427 E.02824
G1 X112.305 Y77.48 E.02382
G1 X111.543 Y77.662 E.02456
G1 X111.08 Y77.866 E.01586
G1 X110.702 Y78.122 E.01431
G1 X110.78 Y77.684 E.01395
G1 X110.806 Y76.537 E.03597
G1 X135.483 Y76.537 E.77373
G1 X135.483 Y79.818 E.10287
G1 X135.529 Y80.041 E.00714
G1 X135.642 Y80.211 E.0064
G1 X135.844 Y80.346 E.00762
G1 X136.282 Y80.491 E.01447
G1 X136.496 Y80.469 E.00675
G1 X136.73 Y80.329 E.00855
G1 X137.229 Y79.834 E.02204
G1 X137.64 Y79.547 E.01572
G1 X138.193 Y79.288 E.01915
G1 X138.787 Y79.138 E.01921
G1 X139.284 Y79.102 E.01562
G1 X139.898 Y79.164 E.01935
G1 X140.378 Y79.299 E.01563
G1 X140.93 Y79.564 E.0192
G1 X141.419 Y79.927 E.01909
G1 X141.832 Y80.377 E.01915
G1 X142.101 Y80.798 E.01566
G1 X142.337 Y81.363 E.0192
G1 X142.461 Y81.958 E.01906
G1 X142.471 Y82.57 E.01919
G1 X142.392 Y83.063 E.01565
G1 X142.19 Y83.65 E.01946
G1 X141.879 Y84.174 E.01911
G1 X141.493 Y84.63 E.01873
G1 X141.008 Y85.006 E.01924
G1 X140.477 Y85.289 E.01887
G1 X139.855 Y85.464 E.02026
G1 X139.302 Y85.523 E.01744
G1 X138.57 Y85.446 E.02308
G1 X138.041 Y85.273 E.01745
G1 X137.571 Y85.025 E.01666
G1 X137.072 Y84.654 E.0195
G1 X136.639 Y84.223 E.01916
G1 X136.381 Y84.134 E.00856
G1 X136.127 Y84.17 E.00804
G1 X136.043 Y84.206 E.00287
M204 S1000
G1 X136.127 Y84.589 F10800
M204 S800
;TYPE:External perimeter
G1 F1200
G1 X135.913 Y84.676 E.00724
G1 X135.86 Y84.807 E.00443
G1 X135.864 Y90.258 E.17091
G1 X135.948 Y91.222 E.03034
G1 X136.039 Y91.616 E.01268
G1 X136.06 Y92.147 E.01666
G1 X135.715 Y91.899 E.01332
G1 X135.482 Y91.645 E.01081
G1 X135.121 Y91.369 E.01425
G1 X134.676 Y91.16 E.01541
G1 X134.012 Y90.99 E.02149
G1 X133.345 Y90.929 E.021
G1 X132.895 Y90.944 E.01412
G1 X132.205 Y91.056 E.02192
G1 X131.497 Y91.295 E.02343
G1 X130.919 Y91.589 E.02033
G1 X130.458 Y91.912 E.01765
G1 X129.947 Y92.389 E.02192
G1 X129.515 Y92.94 E.02195
G1 X129.167 Y93.57 E.02257
G1 X128.932 Y94.207 E.02129
G1 X128.794 Y94.89 E.02185
G1 X128.761 Y95.449 E.01756
G1 X128.797 Y96.011 E.01766
G1 X128.94 Y96.696 E.02194
G1 X129.187 Y97.35 E.02192
G1 X129.53 Y97.957 E.02186
G1 X129.873 Y98.403 E.01764
G1 X130.373 Y98.893 E.02195
G1 X130.942 Y99.299 E.02192
G1 X131.567 Y99.613 E.02193
G1 X132.234 Y99.826 E.02195
G1 X132.925 Y99.934 E.02193
G1 X133.624 Y99.933 E.02192
G1 X134.287 Y99.83 E.02104
G1 X134.639 Y99.727 E.0115
G1 X135.044 Y99.547 E.0139
G1 X135.446 Y99.265 E.0154
G1 X135.639 Y99.035 E.00941
G1 X136.049 Y98.713 E.01635
G1 X136.06 Y99.154 E.01383
G1 X135.889 Y100.08 E.02952
G1 X135.864 Y100.585 E.01585
G1 X135.861 Y101.59 E.03151
G1 X110.43 Y101.59 E.79737
G1 X110.43 Y97.932 E.11469
G1 X110.378 Y97.801 E.00442
G1 X109.976 Y97.634 E.01365
G1 X109.823 Y97.692 E.00513
G1 X109.29 Y98.21 E.0233
G1 X108.743 Y98.586 E.02081
G1 X108.227 Y98.818 E.01774
G1 X107.453 Y99 E.02493
G1 X106.656 Y99.008 E.02499
G1 X106.213 Y98.935 E.01408
G1 X105.583 Y98.719 E.02088
G1 X105.136 Y98.485 E.01582
G1 X104.622 Y98.108 E.01999
G1 X104.092 Y97.513 E.02498
G1 X103.794 Y96.975 E.01928
G1 X103.592 Y96.503 E.0161
G1 X103.467 Y95.946 E.0179
G1 X103.435 Y95.267 E.02131
G1 X103.532 Y94.594 E.02132
G1 X103.753 Y93.952 E.02129
G1 X104.092 Y93.362 E.02134
G1 X104.536 Y92.847 E.02132
G1 X105.07 Y92.424 E.02136
G1 X105.673 Y92.111 E.0213
G1 X106.213 Y91.94 E.01776
G1 X106.772 Y91.857 E.01772
G1 X107.453 Y91.875 E.02136
G1 X108.117 Y92.02 E.02131
G1 X108.743 Y92.289 E.02136
G1 X109.306 Y92.67 E.02131
G1 X109.826 Y93.187 E.02299
G1 X109.967 Y93.241 E.00473
G1 X110.378 Y93.074 E.01391
G1 X110.43 Y92.945 E.00436
G1 X110.426 Y87.492 E.17097
G1 X110.355 Y86.678 E.02562
G1 X110.252 Y86.135 E.01733
G1 X110.23 Y85.603 E.01669
G1 X110.576 Y85.85 E.01333
G1 X110.933 Y86.211 E.01592
G1 X111.429 Y86.519 E.01831
G1 X111.645 Y86.585 E.00708
G1 X112.275 Y86.76 E.0205
G1 X112.835 Y86.818 E.01765
G1 X113.53 Y86.793 E.02181
G1 X114.083 Y86.695 E.01761
G1 X114.618 Y86.53 E.01755
G1 X115.131 Y86.298 E.01765
G1 X115.719 Y85.926 E.02182
G1 X116.16 Y85.548 E.01821
G1 X116.525 Y85.151 E.01691
G1 X116.85 Y84.695 E.01756
G1 X117.115 Y84.202 E.01755
G1 X117.319 Y83.674 E.01775
G1 X117.497 Y82.856 E.02625
G1 X117.527 Y82.155 E.022
G1 X117.42 Y81.325 E.02624
G1 X117.215 Y80.657 E.02191
G1 X116.906 Y80.024 E.02209
G1 X116.417 Y79.347 E.02619
G1 X115.918 Y78.857 E.02193
G1 X115.349 Y78.451 E.02192
G1 X114.721 Y78.136 E.02203
G1 X113.917 Y77.893 E.02634
G1 X113.086 Y77.803 E.02621
G1 X112.387 Y77.848 E.02196
G1 X111.698 Y78.006 E.02216
G1 X111.232 Y78.211 E.01596
G1 X110.845 Y78.485 E.01487
G1 X110.651 Y78.715 E.00943
G1 X110.242 Y79.037 E.01632
G1 X110.23 Y78.596 E.01383
G1 X110.402 Y77.67 E.02953
G1 X110.427 Y77.166 E.01582
G1 X110.43 Y76.16 E.03154
G1 X135.86 Y76.16 E.79734
G1 X135.86 Y79.818 E.11469
G1 X135.913 Y79.949 E.00443
G1 X136.315 Y80.116 E.01365
G1 X136.464 Y80.062 E.00497
G1 X136.986 Y79.544 E.02306
G1 X137.45 Y79.219 E.01776
G1 X138.066 Y78.931 E.02132
G1 X138.726 Y78.765 E.02134
G1 X139.289 Y78.723 E.0177
G1 X139.968 Y78.792 E.0214
G1 X140.512 Y78.945 E.01772
G1 X141.125 Y79.24 E.02133
G1 X141.673 Y79.646 E.02138
G1 X142.132 Y80.146 E.02128
G1 X142.437 Y80.622 E.01773
G1 X142.699 Y81.251 E.02136
G1 X142.837 Y81.916 E.02129
G1 X142.848 Y82.597 E.02136
G1 X142.759 Y83.155 E.01772
G1 X142.536 Y83.801 E.02143
G1 X142.187 Y84.392 E.02152
G1 X141.755 Y84.903 E.02098
G1 X141.213 Y85.322 E.02148
G1 X140.619 Y85.639 E.02111
G1 X139.929 Y85.834 E.02248
G1 X139.295 Y85.902 E.01999
G1 X138.498 Y85.818 E.02513
G1 X137.861 Y85.606 E.02105
G1 X137.374 Y85.347 E.01729
G1 X136.815 Y84.931 E.02185
G1 X136.468 Y84.567 E.01577
G1 X136.323 Y84.509 E.0049
G1 X136.183 Y84.566 E.00474
M204 S1000
;WIPE_START
G1 F8640
G1 X136.127 Y84.589 E-.01398
G1 X135.913 Y84.676 E-.05334
G1 X135.86 Y84.807 E-.03263
G1 X135.862 Y87.839 E-.70005
;WIPE_END
G1 Z.6 F720
G1 X134.513 Y76.688 F10800
G1 Z.2 F720
G1 E.8 F2100
M204 S800
;TYPE:Solid infill
;WIDTH:0.421453
G1 F1200
G1 X135.163 Y77.338 E.02893
G1 X135.163 Y77.873 E.01684
G1 X134.147 Y76.858 E.0452
G1 X133.612 Y76.858 E.01684
G1 X135.163 Y78.409 E.06904
G1 X135.163 Y78.944 E.01684
G1 X133.076 Y76.858 E.09288
G1 X132.541 Y76.858 E.01684
G1 X135.332 Y79.649 E.12423
M204 S1000
;WIPE_START
G1 F8640
G1 X132.882 Y77.199 E-.8
;WIPE_END
G1 Z.6 F720
G1 X140.619 Y79.582 F10800
G1 Z.2 F720
G1 E.8 F2100
M204 S800
G1 F1200
G1 X141.207 Y80.17 E.02617
G1 X141.577 Y80.574 E.01724
G1 X141.816 Y80.947 E.01394
G1 X142.029 Y81.458 E.01743
G1 X142.048 Y81.546 E.00283
G1 X140.037 Y79.536 E.08949
G1 X139.838 Y79.48 E.00651
G1 X139.402 Y79.436 E.01379
G1 X142.144 Y82.178 E.12205
G1 X142.15 Y82.547 E.01162
G1 X142.126 Y82.695 E.00472
G1 X138.883 Y79.453 E.14433
G1 X138.45 Y79.554 E.01399
G1 X142.029 Y83.133 E.15931
G1 X141.89 Y83.53 E.01324
G1 X138.063 Y79.703 E.17035
G1 X137.801 Y79.825 E.0091
G1 X137.712 Y79.887 E.00341
G1 X141.699 Y83.874 E.17747
G1 X141.471 Y84.181 E.01204
G1 X137.403 Y80.113 E.18108
G1 X137.134 Y80.38 E.01193
G1 X141.207 Y84.453 E.1813
G1 X140.908 Y84.689 E.01199
G1 X136.857 Y80.638 E.18032
G1 X136.591 Y80.776 E.00943
G1 X136.481 Y80.797 E.00352
G1 X140.571 Y84.888 E.18208
G1 X140.356 Y84.991 E.0075
G1 X140.194 Y85.046 E.00538
G1 X132.006 Y76.858 E.36447
G1 X131.47 Y76.858 E.01687
G1 X139.768 Y85.155 E.36934
G1 X139.651 Y85.178 E.00375
G1 X139.276 Y85.198 E.01182
G1 X130.935 Y76.858 E.37126
G1 X130.4 Y76.858 E.01684
G1 X138.677 Y85.135 E.36843
G1 X138.632 Y85.13 E.00143
G1 X138.3 Y85.035 E.01087
G1 X137.971 Y84.894 E.01127
G1 X137.791 Y84.784 E.00664
G1 X129.864 Y76.858 E.35283
G1 X129.329 Y76.858 E.01684
G1 X136.285 Y83.814 E.30963
G1 X136.02 Y83.867 E.00851
G1 X135.864 Y83.928 E.00527
G1 X128.794 Y76.858 E.3147
G1 X128.258 Y76.858 E.01687
G1 X135.508 Y84.107 E.32269
G1 X135.409 Y84.192 E.00411
G1 X135.266 Y84.4 E.00794
G1 X127.723 Y76.858 E.33574
G1 X127.188 Y76.858 E.01684
G1 X135.163 Y84.833 E.35499
G1 X135.163 Y85.368 E.01684
G1 X126.652 Y76.858 E.37882
M73 Q2 S36
G1 X126.117 Y76.858 E.01684
M73 P2 R36
G1 X135.163 Y85.904 E.40266
G1 X135.164 Y86.439 E.01684
G1 X125.582 Y76.858 E.4265
G1 X125.047 Y76.858 E.01684
G1 X135.164 Y86.975 E.45033
G1 X135.164 Y87.511 E.01687
G1 X124.511 Y76.858 E.47419
G1 X123.976 Y76.858 E.01684
M73 P2 R35
G1 X135.165 Y88.046 E.49803
G1 X135.165 Y88.582 E.01687
G1 X123.441 Y76.858 E.52187
G1 X122.905 Y76.858 E.01687
G1 X135.165 Y89.118 E.54572
G1 X135.166 Y89.653 E.01684
G1 X122.37 Y76.858 E.56956
G1 X121.835 Y76.858 E.01684
G1 X135.166 Y90.189 E.5934
G1 X135.197 Y90.632 E.01398
G1 X134.965 Y90.524 E.00805
G1 X121.299 Y76.858 E.60831
G1 X120.764 Y76.858 E.01684
G1 X134.229 Y90.322 E.59934
G1 X133.633 Y90.262 E.01885
G1 X120.229 Y76.858 E.59665
G1 X119.693 Y76.858 E.01687
M73 Q2 S35
G1 X133.076 Y90.241 E.59571
G1 X132.793 Y90.253 E.00892
G1 X132.587 Y90.286 E.00657
G1 X119.158 Y76.858 E.59774
G1 X118.623 Y76.858 E.01684
G1 X132.125 Y90.36 E.60101
G1 X131.718 Y90.488 E.01343
G1 X118.087 Y76.858 E.60673
G1 X117.552 Y76.858 E.01684
G1 X131.312 Y90.617 E.61247
G1 X130.949 Y90.79 E.01266
G1 X117.017 Y76.858 E.62015
G1 X116.481 Y76.858 E.01687
G1 X130.596 Y90.973 E.6283
G1 X130.277 Y91.189 E.01213
G1 X115.946 Y76.858 E.63791
G1 X115.411 Y76.858 E.01684
G1 X129.973 Y91.42 E.64819
G1 X129.694 Y91.677 E.01194
G1 X114.875 Y76.858 E.65963
G1 X114.34 Y76.858 E.01684
G1 X114.979 Y77.496 E.02842
G1 X114.192 Y77.245 E.026
G1 X113.805 Y76.858 E.01723
G1 X113.269 Y76.858 E.01687
G1 X113.566 Y77.155 E.01322
G1 X113.1 Y77.105 E.01475
