; generated by PrusaSlicer 2.9.4 on 2026-01-14 at 18:52:53 UTC


;
;
; 

; external perimeters extrusion width = 0.45mm
; perimeters extrusion width = 0.45mm
; infill extrusion width = 0.45mm
; solid infill extrusion width = 0.45mm
; top infill extrusion width = 0.40mm
; first layer extrusion width = 0.42mm

; external perimeters extrusion width = 0.45mm
; perimeters extrusion width = 0.45mm
; infill extrusion width = 0.45mm
; solid infill extrusion width = 0.45mm
; top infill extrusion width = 0.40mm
; first layer extrusion width = 0.42mm

M73 P0 R27
M73 Q0 S28
M201 X1000 Y1000 Z200 E5000 ; sets maximum accelerations, mm/sec^2
M203 X200 Y200 Z12 E120 ; sets maximum feedrates, mm / sec
M204 S1250 T1250 ; sets acceleration (S) and retract acceleration (R), mm/sec^2
M205 X8.00 Y8.00 Z0.40 E4.50 ; sets the jerk limits, mm/sec
M205 S0 T0 ; sets the minimum extruding and travel feed rate, mm/sec

; printing object TextPlatform_1 id:1 copy 0
; stop printing object TextPlatform_1 id:1 copy 0
; printing object TextPlatform_1 id:0 copy 0
; stop printing object TextPlatform_1 id:0 copy 0

;TYPE:Custom
M862.3 P "MK3S" ; printer model check
M862.1 P0.4 ; nozzle diameter check
M115 U3.14.1 ; tell printer latest fw version
G90 ; use absolute coordinates
M83 ; extruder relative mode
M104 S215 ; set extruder temp
M140 S60 ; set bed temp
M190 S60 ; wait for bed temp
M109 S215 ; wait for extruder temp
G28 W ; home all without mesh bed level
G80 X96.5194 Y81.3255 W56.9576 H47.3521 ; mesh bed levelling

G1 Z0.2 F720
G1 Y-3 F1000 ; go outside print area
G92 E0
G1 X60 E9 F1000 ; intro line
G1 X100 E12.5 F1000 ; intro line

G92 E0
M221 S95

; Don't change E values below. Excessive value can damage the printer.
M907 E430 ; set extruder motor current
G21 ; set units to millimeters
G90 ; use absolute coordinates
M83 ; use relative distances for extrusion

M900 K0.05 ; Filament gcode LA 1.5
M900 K30 ; Filament gcode LA 1.0




M107
;LAYER_CHANGE
;Z:0.2
;HEIGHT:0.2
G1 E-.8 F2100
M73 Q0 S27
G1 Z.6 F720
G1 X103.231 Y86.728 F10800
G1 Z.2 F720
G1 E.8 F2100
M204 S800
;TYPE:Skirt/Brim
;WIDTH:0.42
G1 F1200
G1 X104.272 Y85.583 E.04852
G1 X106.205 Y83.939 E.07956
G1 X108.423 Y82.642 E.08056
G1 X109.512 Y82.21 E.03673
G1 X110.461 Y81.904 E.03126
G1 X111.471 Y81.686 E.0324
G1 X112.654 Y81.558 E.03731
G1 X113.945 Y81.529 E.04049
G1 X115.608 Y81.667 E.05232
G1 X116.897 Y81.935 E.04128
G1 X146.142 Y90.603 E.95639
G1 X147.723 Y91.331 E.05457
G1 X149.455 Y92.486 E.06527
G1 X150.991 Y94.037 E.06844
G1 X152.056 Y95.723 E.06253
G1 X152.565 Y96.91 E.0405
G1 X153.037 Y98.525 E.05276
G1 X153.236 Y100.023 E.04738
G1 X153.274 Y101.629 E.05037
G1 X153.136 Y103.355 E.05429
G1 X152.823 Y104.842 E.04765
G1 X152.312 Y106.42 E.05201
G1 X151.565 Y107.937 E.05302
G1 X150.978 Y108.851 E.03406
G1 X150.101 Y109.905 E.04299
G1 X137.564 Y123.14 E.5716
G1 X136.4 Y123.782 E.04168
G1 X113.832 Y128.234 E.72124
G1 X111.92 Y128.445 E.06031
G1 X109.773 Y128.453 E.06732
G1 X108.134 Y128.298 E.05162
G1 X106.633 Y127.959 E.04825
G1 X104.625 Y127.216 E.06713
G1 X103.499 Y126.563 E.04081
G1 X102.293 Y125.706 E.04639
G1 X101.257 Y124.711 E.04504
G1 X100.024 Y123.144 E.06252
G1 X99.323 Y121.909 E.04453
G1 X98.315 Y119.691 E.07639
G1 X97.476 Y116.688 E.09776
G1 X96.901 Y112.801 E.1232
G1 X96.708 Y108.626 E.13104
G1 X96.817 Y105.024 E.11299
G1 X97.197 Y101.56 E.10926
G1 X97.886 Y98.04 E.11246
G1 X98.646 Y95.346 E.08777
G1 X100.155 Y91.572 E.12744
G1 X101.012 Y89.921 E.05832
G1 X101.78 Y88.675 E.04589
G1 X103.196 Y86.777 E.07425
M204 S1000
;WIPE_START
G1 F8640
G1 X103.231 Y86.728 E-.0139
G1 X104.272 Y85.583 E-.35732
G1 X105.687 Y84.38 E-.42878
;WIPE_END
G1 Z.6 F720
; printing object TextPlatform_1 id:0 copy 0
G1 X113.45 Y98.558 F10800
G1 Z.2 F720
G1 E.8 F2100
M204 S800
;TYPE:Perimeter
;WIDTH:0.419999
G1 F1200
G1 X113.521 Y98.587 E.0024
G1 X113.894 Y98.875 E.01478
G1 X114.022 Y99.117 E.00858
G1 X114.037 Y99.303 E.00585
G1 X113.174 Y109.146 E.3098
G1 X113.012 Y109.581 E.01455
G1 X112.711 Y110.179 E.02099
M73 Q1 S27
G1 X112.408 Y110.72 E.01944
G1 X112.017 Y111.274 E.02126
G1 X111.537 Y111.763 E.02148
G1 X111.285 Y111.915 E.00923
G1 X110.818 Y112.116 E.01594
G1 X110.521 Y112.142 E.00935
G1 X110.095 Y112.027 E.01384
G1 X109.707 Y111.761 E.01475
G1 X109.442 Y111.368 E.01486
G1 X109.257 Y110.86 E.01695
G1 X109.113 Y110.056 E.02561
M73 P1 R27
G1 X109.023 Y108.59 E.04605
G1 X109.029 Y106.622 E.06171
G1 X109.14 Y104.719 E.05977
G1 X109.254 Y103.654 E.03358
G1 X109.402 Y102.709 E.02999
G1 X109.565 Y101.93 E.02495
G1 X109.788 Y101.055 E.02831
G1 X109.901 Y100.697 E.01177
G1 X110.413 Y99.57 E.03881
G1 X110.902 Y98.914 E.02565
G1 X111.353 Y98.578 E.01763
G1 X111.644 Y98.452 E.00994
G1 X112.187 Y98.31 E.0176
G1 X112.414 Y98.297 E.00713
G1 X113.024 Y98.388 E.01934
G1 X113.395 Y98.536 E.01252
M204 S1000
G1 X113.267 Y98.888 F10800
M204 S800
;TYPE:External perimeter
G1 F1200
G1 X113.342 Y98.92 E.00256
G1 X113.633 Y99.154 E.01171
G1 X113.661 Y99.27 E.00374
G1 X112.798 Y109.113 E.3098
G1 X112.57 Y109.645 E.01815
G1 X112.248 Y110.233 E.02102
G1 X111.71 Y111.055 E.0308
G1 X111.271 Y111.496 E.01951
G1 X110.698 Y111.758 E.01975
G1 X110.352 Y111.728 E.01089
G1 X109.984 Y111.504 E.01351
G1 X109.766 Y111.16 E.01277
G1 X109.599 Y110.629 E.01745
G1 X109.484 Y109.989 E.02039
G1 X109.399 Y108.568 E.04463
G1 X109.397 Y107.161 E.04412
G1 X109.406 Y106.628 E.01671
G1 X109.517 Y104.741 E.05927
G1 X109.629 Y103.694 E.03302
G1 X109.774 Y102.768 E.02939
G1 X109.933 Y102.009 E.02431
G1 X110.244 Y100.853 E.03753
G1 X110.757 Y99.724 E.03888
G1 X111.2 Y99.145 E.02286
G1 X111.618 Y98.856 E.01593
G1 X112.283 Y98.674 E.02162
G1 X112.968 Y98.761 E.02165
G1 X113.212 Y98.865 E.00832
M204 S1000
;WIPE_START
G1 F8640
G1 X113.267 Y98.888 E-.01377
G1 X113.342 Y98.92 E-.01883
G1 X113.633 Y99.154 E-.08622
G1 X113.661 Y99.27 E-.02755
G1 X113.414 Y102.09 E-.65363
;WIPE_END
G1 Z.6 F720
G1 X113.658 Y112.172 F10800
G1 Z.2 F720
G1 E.8 F2100
M204 S800
;TYPE:Perimeter
G1 F1200
G1 X113.401 Y112.154 E.00808
G1 X113.119 Y112.283 E.00972
G1 X112.999 Y112.426 E.00585
G1 X112.687 Y112.956 E.01928
G1 X112.398 Y113.383 E.01617
G1 X111.898 Y113.9 E.02255
G1 X111.472 Y114.24 E.01709
G1 X110.87 Y114.538 E.02106
G1 X110.406 Y114.697 E.01538
G1 X109.685 Y114.778 E.02275
G1 X109.231 Y114.77 E.01424
G1 X108.671 Y114.681 E.01778
G1 X108.09 Y114.457 E.01952
G1 X107.766 Y114.237 E.01228
G1 X107.32 Y113.837 E.01878
G1 X106.99 Y113.395 E.0173
G1 X106.718 Y112.875 E.0184
G1 X106.496 Y112.367 E.01738
G1 X106.197 Y111.297 E.03483
G1 X106.012 Y110.113 E.03757
G1 X105.955 Y109.54 E.01805
G1 X105.919 Y108.825 E.02245
G1 X105.904 Y108.006 E.02568
G1 X105.917 Y107.088 E.02879
G1 X105.953 Y106.088 E.03137
G1 X106.016 Y105.063 E.0322
G1 X106.124 Y103.971 E.03441
G1 X106.222 Y103.252 E.02275
G1 X106.416 Y102.164 E.03465
G1 X106.637 Y101.222 E.03034
G1 X106.968 Y100.135 E.03563
G1 X107.212 Y99.472 E.02215
G1 X107.772 Y98.322 E.04011
G1 X108.353 Y97.493 E.03174
G1 X108.958 Y96.871 E.02721
G1 X109.379 Y96.546 E.01668
G1 X109.992 Y96.176 E.02245
G1 X110.949 Y95.832 E.03189
G1 X111.459 Y95.741 E.01624
G1 X112.256 Y95.69 E.02504
G1 X113.082 Y95.746 E.02596
G1 X113.607 Y95.842 E.01673
G1 X114.3 Y96.037 E.02257
G1 X114.797 Y96.222 E.01663
G1 X115.087 Y96.236 E.0091
G1 X117.519 Y95.713 E.078
G1 X116.383 Y107.423 E.36888
G1 X116.3 Y108.59 E.03668
G1 X116.265 Y110.154 E.04905
G1 X116.326 Y110.818 E.02091
G1 X116.507 Y111.439 E.02028
G1 X116.756 Y111.761 E.01276
G1 X117.082 Y111.999 E.01266
G1 X117.393 Y112.098 E.01023
G1 X117.841 Y112.148 E.01413
G1 X118.079 Y112.05 E.00807
G1 X118.708 Y111.592 E.0244
G1 X119.141 Y111.162 E.01913
G1 X119.295 Y110.931 E.0087
G1 X119.608 Y110.348 E.02075
G1 X119.845 Y109.515 E.02715
G1 X119.975 Y108.846 E.02137
G1 X120.276 Y106.963 E.05979
G1 X120.45 Y105.55 E.04464
G1 X120.545 Y104.314 E.03887
G1 X120.591 Y103.181 E.03555
G1 X120.617 Y100.815 E.07419
G1 X120.603 Y99.752 E.03333
G1 X120.504 Y97.47 E.07162
G1 X120.25 Y95.056 E.07611
G1 X119.97 Y93.524 E.04883
G1 X119.801 Y92.841 E.02206
G1 X119.619 Y92.249 E.01942
G1 X118.996 Y90.653 E.05372
G1 X118.574 Y89.897 E.02715
G1 X118.235 Y89.411 E.01858
G1 X117.762 Y88.822 E.02369
G1 X116.819 Y87.983 E.03958
G1 X116.004 Y87.531 E.02922
G1 X115.397 Y87.272 E.02069
G1 X114.738 Y87.092 E.02142
G1 X114.115 Y87.004 E.01973
G1 X113.271 Y86.956 E.02651
G1 X112.215 Y87.075 E.03332
G1 X111.542 Y87.251 E.02181
G1 X110.833 Y87.557 E.02421
G1 X110.317 Y87.82 E.01816
G1 X109.486 Y88.405 E.03186
G1 X109.049 Y88.754 E.01754
G1 X108.604 Y89.163 E.01895
G1 X108.038 Y89.772 E.02607
G1 X107.039 Y91.07 E.05136
G1 X106.719 Y91.537 E.01775
G1 X106.375 Y92.101 E.02071
G1 X105.601 Y93.575 E.0522
G1 X104.815 Y95.426 E.06305
G1 X104.324 Y96.841 E.04696
G1 X103.999 Y97.905 E.03488
G1 X103.557 Y99.66 E.05675
G1 X103.351 Y100.613 E.03057
G1 X103.158 Y101.686 E.03418
G1 X102.958 Y102.956 E.04031
G1 X102.764 Y104.677 E.0543
G1 X102.639 Y106.401 E.0542
G1 X102.585 Y108.545 E.06724
G1 X102.668 Y111.081 E.07956
G1 X102.792 Y112.451 E.04313
G1 X103.127 Y114.657 E.06996
G1 X103.525 Y116.261 E.05182
G1 X103.735 Y116.929 E.02196
G1 X103.946 Y117.491 E.01882
G1 X104.227 Y118.133 E.02197
G1 X104.761 Y119.216 E.03786
G1 X105.467 Y120.251 E.03928
G1 X105.976 Y120.843 E.02448
G1 X106.405 Y121.272 E.01902
G1 X107.337 Y121.999 E.03706
G1 X107.816 Y122.256 E.01704
G1 X108.376 Y122.528 E.01952
G1 X108.869 Y122.717 E.01655
G1 X109.865 Y122.95 E.03207
G1 X110.814 Y123.032 E.02987
G1 X111.407 Y123.033 E.01859
G1 X112.255 Y122.995 E.02662
G1 X112.891 Y122.925 E.02006
G1 X113.519 Y122.823 E.01995
G1 X114.127 Y122.698 E.01946
G1 X114.778 Y122.533 E.02106
G1 X115.569 Y122.286 E.02598
G1 X116.193 Y122.053 E.02088
G1 X116.79 Y121.804 E.02028
G1 X117.87 Y121.281 E.03762
G1 X117.811 Y121.935 E.02059
G1 X117.804 Y123.874 E.0608
G1 X116.871 Y124.309 E.03228
G1 X115.929 Y124.658 E.0315
G1 X114.659 Y125.032 E.04151
G1 X113.469 Y125.276 E.03809
G1 X112.921 Y125.365 E.01741
G1 X112.322 Y125.434 E.01891
G1 X110.699 Y125.514 E.05095
G1 X109.631 Y125.464 E.03352
G1 X108.866 Y125.394 E.02409
G1 X108.116 Y125.271 E.02383
G1 X107.495 Y125.11 E.02011
G1 X106.708 Y124.841 E.02608
G1 X105.803 Y124.482 E.03053
G1 X104.887 Y123.917 E.03374
G1 X104.183 Y123.407 E.02726
G1 X103.783 Y123.05 E.01681
G1 X103.372 Y122.61 E.01888
G1 X103 Y122.155 E.01843
G1 X102.452 Y121.422 E.0287
G1 X101.816 Y120.255 E.04167
G1 X101.324 Y119.218 E.03599
G1 X101.054 Y118.51 E.02376
G1 X100.854 Y117.883 E.02064
G1 X100.402 Y116.143 E.05637
G1 X100.019 Y113.806 E.07425
G1 X99.836 Y112.229 E.04978
G1 X99.768 Y111.255 E.03061
G1 X99.716 Y109.979 E.04004
G1 X99.684 Y108.577 E.04397
G1 X99.695 Y107.61 E.03032
G1 X99.765 Y105.543 E.06485
G1 X99.839 Y104.581 E.03025
G1 X100.134 Y102.044 E.08008
G1 X100.568 Y99.661 E.07595
G1 X100.93 Y98.153 E.04863
G1 X101.492 Y96.214 E.0633
G1 X102.18 Y94.336 E.06271
G1 X102.493 Y93.591 E.02534
G1 X102.831 Y92.872 E.02491
G1 X103.632 Y91.332 E.05443
G1 X104.274 Y90.298 E.03816
G1 X104.82 Y89.501 E.03029
G1 X105.185 Y89.029 E.01871
G1 X105.653 Y88.48 E.02262
G1 X106.39 Y87.676 E.0342
G1 X107.361 Y86.807 E.04086
G1 X107.955 Y86.346 E.02358
G1 X108.505 Y85.987 E.02059
G1 X109.756 Y85.303 E.0447
G1 X110.729 Y84.936 E.03261
G1 X111.382 Y84.739 E.02139
G1 X111.877 Y84.637 E.01585
G1 X112.411 Y84.564 E.0169
G1 X113.522 Y84.489 E.03491
G1 X114.648 Y84.554 E.03536
G1 X115.209 Y84.616 E.0177
G1 X115.817 Y84.729 E.01939
G1 X116.35 Y84.88 E.01737
G1 X117.042 Y85.137 E.02315
G1 X117.869 Y85.496 E.02827
G1 X118.731 Y86.07 E.03247
G1 X119.155 Y86.387 E.0166
G1 X119.581 Y86.759 E.01773
G1 X119.957 Y87.157 E.01717
G1 X120.416 Y87.728 E.02297
G1 X120.939 Y88.456 E.02811
G1 X121.433 Y89.379 E.03282
G1 X121.863 Y90.265 E.03088
G1 X122.083 Y90.794 E.01796
G1 X122.342 Y91.545 E.02491
G1 X122.55 Y92.272 E.02371
G1 X122.846 Y93.455 E.03824
G1 X123.176 Y95.461 E.06374
G1 X123.36 Y97.005 E.04875
G1 X123.423 Y97.915 E.0286
G1 X123.469 Y99.106 E.03737
G1 X123.495 Y100.461 E.04249
G1 X123.427 Y103.133 E.08381
G1 X123.364 Y104.185 E.03304
G1 X123.045 Y107.168 E.09406
G1 X122.792 Y108.553 E.04414
G1 X122.637 Y109.234 E.0219
G1 X122.349 Y110.187 E.03122
G1 X121.778 Y111.657 E.04945
G1 X121.242 Y112.596 E.0339
G1 X120.727 Y113.253 E.02617
G1 X120.343 Y113.613 E.0165
G1 X119.92 Y113.958 E.01711
G1 X119.413 Y114.249 E.01833
G1 X118.938 Y114.465 E.01636
G1 X118.428 Y114.635 E.01686
G1 X117.89 Y114.731 E.01714
G1 X117.086 Y114.791 E.02528
G1 X116.314 Y114.667 E.02452
G1 X115.865 Y114.55 E.01455
G1 X115.368 Y114.329 E.01705
G1 X115.04 Y114.006 E.01443
G1 X114.749 Y113.548 E.01701
G1 X114.275 Y112.497 E.03615
G1 X114.11 Y112.286 E.0084
G1 X113.927 Y112.19 E.00648
G1 X113.718 Y112.176 E.00657
M204 S1000
G1 X113.634 Y112.546 F10800
M204 S800
;TYPE:External perimeter
G1 F1200
G1 X113.458 Y112.527 E.00555
G1 X113.324 Y112.618 E.00508
G1 X112.991 Y113.183 E.02056
G1 X112.691 Y113.622 E.01667
G1 X112.152 Y114.18 E.02433
G1 X111.676 Y114.56 E.0191
G1 X111.038 Y114.876 E.02232
G1 X110.482 Y115.068 E.01844
G1 X109.727 Y115.153 E.02382
G1 X109.135 Y115.141 E.01857
G1 X108.566 Y115.045 E.01809
G1 X107.914 Y114.793 E.02192
G1 X107.415 Y114.454 E.01891
G1 X107.036 Y114.087 E.01654
G1 X106.67 Y113.597 E.01918
G1 X106.348 Y112.982 E.02177
G1 X106.14 Y112.492 E.01669
G1 X105.828 Y111.377 E.0363
G1 X105.638 Y110.161 E.03859
G1 X105.579 Y109.569 E.01865
G1 X105.542 Y108.838 E.02295
G1 X105.527 Y108.007 E.02606
G1 X105.576 Y106.07 E.06075
G1 X105.64 Y105.033 E.03258
G1 X105.749 Y103.927 E.03485
G1 X105.85 Y103.193 E.02323
G1 X106.046 Y102.088 E.03519
G1 X106.273 Y101.124 E.03105
G1 X106.613 Y100.009 E.03655
G1 X106.869 Y99.316 E.02316
G1 X107.453 Y98.121 E.0417
G1 X108.062 Y97.252 E.03327
G1 X108.706 Y96.589 E.02898
G1 X109.166 Y96.234 E.01822
G1 X109.829 Y95.834 E.02428
G1 X110.851 Y95.466 E.03406
G1 X111.414 Y95.366 E.01793
G1 X112.256 Y95.312 E.02645
G1 X113.034 Y95.365 E.02445
G1 X113.613 Y95.46 E.0184
G1 X114.138 Y95.6 E.01704
G1 X114.833 Y95.833 E.02298
G1 X115.008 Y95.867 E.00559
G1 X117.944 Y95.236 E.09416
G1 X116.758 Y107.455 E.38492
M73 Q2 S27
G1 X116.677 Y108.608 E.03624
M73 P2 R27
G1 X116.641 Y110.126 E.04761
G1 X116.689 Y110.718 E.01862
G1 X116.831 Y111.237 E.01687
G1 X117.045 Y111.519 E.0111
G1 X117.284 Y111.68 E.00904
G1 X117.716 Y111.775 E.01387
G1 X117.86 Y111.743 E.00463
G1 X118.442 Y111.324 E.02249
G1 X118.875 Y110.894 E.01913
G1 X119.249 Y110.235 E.02376
G1 X119.475 Y109.442 E.02585
G1 X119.603 Y108.786 E.02096
G1 X119.902 Y106.912 E.0595
G1 X120.075 Y105.521 E.04395
G1 X120.169 Y104.293 E.03862
G1 X120.214 Y103.177 E.03502
G1 X120.24 Y100.82 E.07391
G1 X120.226 Y99.761 E.03321
G1 X120.129 Y97.51 E.07064
G1 X119.879 Y95.123 E.07525
G1 X119.601 Y93.603 E.04845
G1 X119.441 Y92.951 E.02105
G1 X119.267 Y92.383 E.01863
G1 X118.663 Y90.831 E.05222
G1 X118.25 Y90.09 E.0266
G1 X117.938 Y89.643 E.01709
G1 X117.511 Y89.104 E.02156
G1 X116.799 Y88.47 E.02989
G1 X116.422 Y88.18 E.01491
G1 X115.854 Y87.876 E.0202
G1 X115.296 Y87.635 E.01906
G1 X114.685 Y87.465 E.01989
G1 X114.09 Y87.381 E.01884
G1 X113.312 Y87.331 E.02444
G1 X112.307 Y87.441 E.0317
G1 X111.684 Y87.6 E.02016
G1 X111.003 Y87.894 E.02326
G1 X110.495 Y88.153 E.01788
G1 X109.717 Y88.703 E.02987
G1 X109.303 Y89.033 E.0166
G1 X108.88 Y89.42 E.01798
G1 X108.315 Y90.027 E.026
G1 X107.349 Y91.284 E.04971
G1 X107.041 Y91.734 E.0171
G1 X106.709 Y92.277 E.01996
G1 X105.948 Y93.723 E.05123
G1 X105.172 Y95.55 E.06224
G1 X104.684 Y96.955 E.04663
G1 X104.365 Y97.997 E.03417
G1 X103.926 Y99.739 E.05633
G1 X103.722 Y100.68 E.03019
G1 X103.53 Y101.749 E.03405
G1 X103.333 Y102.996 E.03958
G1 X103.141 Y104.704 E.05389
G1 X103.016 Y106.414 E.05376
G1 X102.962 Y108.539 E.06665
G1 X103.015 Y110.596 E.06452
G1 X103.076 Y111.543 E.02975
G1 X103.165 Y112.394 E.02683
G1 X103.498 Y114.583 E.06942
G1 X103.885 Y116.149 E.05058
G1 X104.088 Y116.797 E.02129
G1 X104.292 Y117.34 E.01819
G1 X104.566 Y117.968 E.02148
G1 X105.076 Y119.009 E.03635
G1 X105.767 Y120.022 E.03845
G1 X106.244 Y120.578 E.02297
G1 X106.643 Y120.98 E.01776
G1 X107.563 Y121.697 E.03657
G1 X108.511 Y122.176 E.0333
