; generated by PrusaSlicer 2.9.4 on 2026-01-14 at 18:55:56 UTC


;
;
; 

; external perimeters extrusion width = 0.45mm
; perimeters extrusion width = 0.45mm
; infill extrusion width = 0.45mm
; solid infill extrusion width = 0.45mm
; top infill extrusion width = 0.40mm
; first layer extrusion width = 0.42mm

; external perimeters extrusion width = 0.45mm
; perimeters extrusion width = 0.45mm
; infill extrusion width = 0.45mm
; solid infill extrusion width = 0.45mm
; top infill extrusion width = 0.40mm
; first layer extrusion width = 0.42mm

; external perimeters extrusion width = 0.45mm
; perimeters extrusion width = 0.45mm
; infill extrusion width = 0.45mm
; solid infill extrusion width = 0.45mm
; top infill extrusion width = 0.40mm
; first layer extrusion width = 0.42mm

; external perimeters extrusion width = 0.45mm
; perimeters extrusion width = 0.45mm
; infill extrusion width = 0.45mm
; solid infill extrusion width = 0.45mm
; top infill extrusion width = 0.40mm
; first layer extrusion width = 0.42mm

; external perimeters extrusion width = 0.45mm
; perimeters extrusion width = 0.45mm
; infill extrusion width = 0.45mm
; solid infill extrusion width = 0.45mm
; top infill extrusion width = 0.40mm
; first layer extrusion width = 0.42mm

; external perimeters extrusion width = 0.45mm
; perimeters extrusion width = 0.45mm
; infill extrusion width = 0.45mm
; solid infill extrusion width = 0.45mm
; top infill extrusion width = 0.40mm
; first layer extrusion width = 0.42mm

; external perimeters extrusion width = 0.45mm
; perimeters extrusion width = 0.45mm
; infill extrusion width = 0.45mm
; solid infill extrusion width = 0.45mm
; top infill extrusion width = 0.40mm
; first layer extrusion width = 0.42mm

; external perimeters extrusion width = 0.45mm
; perimeters extrusion width = 0.45mm
; infill extrusion width = 0.45mm
; solid infill extrusion width = 0.45mm
; top infill extrusion width = 0.40mm
; first layer extrusion width = 0.42mm

; external perimeters extrusion width = 0.45mm
; perimeters extrusion width = 0.45mm
; infill extrusion width = 0.45mm
; solid infill extrusion width = 0.45mm
; top infill extrusion width = 0.40mm
; first layer extrusion width = 0.42mm

; external perimeters extrusion width = 0.45mm
; perimeters extrusion width = 0.45mm
; infill extrusion width = 0.45mm
; solid infill extrusion width = 0.45mm
; top infill extrusion width = 0.40mm
; first layer extrusion width = 0.42mm

; external perimeters extrusion width = 0.45mm
; perimeters extrusion width = 0.45mm
; infill extrusion width = 0.45mm
; solid infill extrusion width = 0.45mm
; top infill extrusion width = 0.40mm
; first layer extrusion width = 0.42mm

; external perimeters extrusion width = 0.45mm
; perimeters extrusion width = 0.45mm
; infill extrusion width = 0.45mm
; solid infill extrusion width = 0.45mm
; top infill extrusion width = 0.40mm
; first layer extrusion width = 0.42mm

; external perimeters extrusion width = 0.45mm
; perimeters extrusion width = 0.45mm
; infill extrusion width = 0.45mm
; solid infill extrusion width = 0.45mm
; top infill extrusion width = 0.40mm
; first layer extrusion width = 0.42mm

M73 P0 R116
M73 Q0 S117
M201 X1000 Y1000 Z200 E5000 ; sets maximum accelerations, mm/sec^2
M203 X200 Y200 Z12 E120 ; sets maximum feedrates, mm / sec
M204 S1250 T1250 ; sets acceleration (S) and retract acceleration (R), mm/sec^2
M205 X8.00 Y8.00 Z0.40 E4.50 ; sets the jerk limits, mm/sec
M205 S0 T0 ; sets the minimum extruding and travel feed rate, mm/sec

; printing object TextPlatform_1 id:11 copy 0
; stop printing object TextPlatform_1 id:11 copy 0
; printing object TextPlatform_1 id:7 copy 0
; stop printing object TextPlatform_1 id:7 copy 0
; printing object TextPlatform_1 id:9 copy 0
; stop printing object TextPlatform_1 id:9 copy 0
; printing object TextPlatform_1 id:6 copy 0
; stop printing object TextPlatform_1 id:6 copy 0
; printing object TextPlatform_1 id:12 copy 0
; stop printing object TextPlatform_1 id:12 copy 0
; printing object TextPlatform_1 id:0 copy 0
; stop printing object TextPlatform_1 id:0 copy 0
; printing object TextPlatform_1 id:3 copy 0
; stop printing object TextPlatform_1 id:3 copy 0
; printing object TextPlatform_1 id:4 copy 0
; stop printing object TextPlatform_1 id:4 copy 0
; printing object TextPlatform_1 id:2 copy 0
; stop printing object TextPlatform_1 id:2 copy 0
; printing object TextPlatform_1 id:5 copy 0
; stop printing object TextPlatform_1 id:5 copy 0
; printing object TextPlatform_1 id:8 copy 0
; stop printing object TextPlatform_1 id:8 copy 0
; printing object TextPlatform_1 id:1 copy 0
; stop printing object TextPlatform_1 id:1 copy 0
; printing object TextPlatform_1 id:10 copy 0
; stop printing object TextPlatform_1 id:10 copy 0

;TYPE:Custom
M862.3 P "MK3S" ; printer model check
M862.1 P0.4 ; nozzle diameter check
M115 U3.14.1 ; tell printer latest fw version
G90 ; use absolute coordinates
M83 ; extruder relative mode
M104 S215 ; set extruder temp
M140 S60 ; set bed temp
M190 S60 ; wait for bed temp
M109 S215 ; wait for extruder temp
G28 W ; home all without mesh bed level
G80 X60.7485 Y50.8168 W128.503 H108.366 ; mesh bed levelling

G1 Z0.2 F720
G1 Y-3 F1000 ; go outside print area
G92 E0
G1 X60 E9 F1000 ; intro line
G1 X100 E12.5 F1000 ; intro line

G92 E0
M221 S95

; Don't change E values below. Excessive value can damage the printer.
M907 E430 ; set extruder motor current
G21 ; set units to millimeters
G90 ; use absolute coordinates
M83 ; use relative distances for extrusion

M900 K0.05 ; Filament gcode LA 1.5
M900 K30 ; Filament gcode LA 1.0




M107
;LAYER_CHANGE
;Z:0.2
;HEIGHT:0.2
G1 E-.8 F2100
G1 Z.6 F720
G1 X61.328 Y52.516 F10800
G1 Z.2 F720
G1 E.8 F2100
M204 S800
;TYPE:Skirt/Brim
;WIDTH:0.42
G1 F1200
G1 X62.361 Y51.713 E.04102
G1 X63.109 Y51.576 E.02384
G1 X138.96 Y51.005 E2.37832
G1 X169.107 Y51.005 E.94524
G1 X170.355 Y51.396 E.04101
G1 X171.062 Y52.209 E.03378
G1 X183.889 Y77.777 E.89689
G1 X188.986 Y96.529 E.60929
G1 X189.063 Y97.103 E.01816
G1 X189.063 Y101.533 E.1389
G1 X188.916 Y102.322 E.02516
G1 X169.481 Y152.639 E1.69125
G1 X168.218 Y153.896 E.05587
G1 X166.173 Y154.625 E.06807
G1 X163.956 Y155.198 E.0718
G1 X140.301 Y158.414 E.74851
G1 X90.356 Y158.995 E1.5661
G1 X71.397 Y158.995 E.59445
G1 X70.148 Y158.604 E.04104
M73 Q0 S116
G1 X69.222 Y157.052 E.05667
G1 X60.951 Y84.01 E2.30482
G1 X60.937 Y53.764 E.94834
G1 X61.31 Y52.573 E.03913
M204 S1000
;WIPE_START
G1 F8640
G1 X61.328 Y52.516 E-.0138
G1 X62.361 Y51.713 E-.30211
G1 X63.109 Y51.576 E-.17559
G1 X64.445 Y51.566 E-.3085
;WIPE_END
G1 Z.6 F720
; printing object TextPlatform_1 id:6 copy 0
G1 X68.254 Y67.474 F10800
G1 Z.2 F720
G1 E.8 F2100
M204 S800
;TYPE:Perimeter
;WIDTH:0.419999
G1 F1200
G1 X68.377 Y67.568 E.00485
G1 X68.642 Y67.634 E.00856
G1 X79.416 Y67.634 E.33781
G1 X79.416 Y70.697 E.09604
G1 X68.535 Y70.697 E.34117
G1 X68.289 Y70.821 E.00864
G1 X68.151 Y70.983 E.00667
G1 X68.077 Y71.263 E.00908
G1 X68.077 Y82.977 E.36728
G1 X63.913 Y82.977 E.13056
G1 X63.913 Y54.551 E.89128
G1 X80.058 Y54.551 E.50621
G1 X80.058 Y57.751 E.10033
G1 X68.562 Y57.751 E.36045
G1 X68.27 Y57.891 E.01015
G1 X68.159 Y58.024 E.00543
G1 X68.077 Y58.317 E.00954
G1 X68.077 Y67.181 E.27792
G1 X68.215 Y67.43 E.00893
M204 S1000
G1 X68.541 Y67.214 F10800
M204 S800
;TYPE:External perimeter
G1 F1200
G1 X68.642 Y67.257 E.00344
G1 X79.793 Y67.257 E.34963
G1 X79.793 Y71.074 E.11968
G1 X68.642 Y71.074 E.34963
G1 X68.525 Y71.115 E.00389
G1 X68.454 Y71.263 E.00515
G1 X68.454 Y83.354 E.3791
G1 X63.536 Y83.354 E.1542
G1 X63.536 Y54.174 E.91492
G1 X80.436 Y54.174 E.52989
G1 X80.436 Y58.128 E.12397
G1 X68.642 Y58.128 E.36979
G1 X68.518 Y58.175 E.00416
G1 X68.454 Y58.317 E.00488
G1 X68.454 Y67.069 E.27441
G1 X68.497 Y67.179 E.0037
M204 S1000
;WIPE_START
G1 F8640
G1 X68.541 Y67.214 E-.01298
G1 X68.642 Y67.257 E-.02535
G1 X71.941 Y67.257 E-.76167
;WIPE_END
G1 Z.6 F720
G1 X79.908 Y55.47 F10800
G1 Z.2 F720
G1 E.8 F2100
M204 S800
;TYPE:Solid infill
;WIDTH:0.42272
G1 F1200
G1 X79.309 Y54.872 E.02673
G1 X78.772 Y54.872 E.01696
G1 X79.738 Y55.837 E.04312
G1 X79.738 Y56.374 E.01696
G1 X78.235 Y54.872 E.0671
G1 X77.698 Y54.872 E.01696
G1 X79.738 Y56.912 E.09111
G1 X79.738 Y57.431 E.01639
G1 X79.72 Y57.431 E.00057
G1 X77.161 Y54.872 E.11429
G1 X76.624 Y54.872 E.01696
G1 X79.183 Y57.431 E.11429
G1 X78.646 Y57.431 E.01696
G1 X76.087 Y54.872 E.11429
G1 X75.549 Y54.872 E.01699
G1 X78.109 Y57.431 E.11431
G1 X77.571 Y57.431 E.01699
G1 X75.012 Y54.872 E.11429
G1 X74.475 Y54.872 E.01696
G1 X77.034 Y57.431 E.11429
G1 X76.497 Y57.431 E.01696
G1 X73.938 Y54.872 E.11429
G1 X73.401 Y54.872 E.01696
G1 X75.96 Y57.431 E.11429
G1 X75.423 Y57.431 E.01696
G1 X72.864 Y54.872 E.11429
G1 X72.327 Y54.872 E.01696
G1 X74.886 Y57.431 E.11429
G1 X74.349 Y57.431 E.01696
G1 X71.79 Y54.872 E.11429
G1 X71.253 Y54.872 E.01696
G1 X73.812 Y57.431 E.11429
G1 X73.274 Y57.431 E.01699
G1 X70.715 Y54.872 E.11429
G1 X70.178 Y54.872 E.01696
G1 X72.737 Y57.431 E.11429
G1 X72.2 Y57.431 E.01696
G1 X69.641 Y54.872 E.11429
G1 X69.104 Y54.872 E.01696
G1 X71.663 Y57.431 E.11429
G1 X71.126 Y57.431 E.01696
G1 X68.567 Y54.872 E.11429
G1 X68.03 Y54.872 E.01696
G1 X70.589 Y57.431 E.11429
G1 X70.052 Y57.431 E.01696
G1 X67.493 Y54.872 E.11429
G1 X66.956 Y54.872 E.01696
G1 X69.515 Y57.431 E.11429
G1 X68.978 Y57.431 E.01696
G1 X66.418 Y54.872 E.11431
G1 X65.881 Y54.872 E.01696
G1 X68.461 Y57.451 E.1152
G1 X68.316 Y57.492 E.00476
G1 X68.097 Y57.624 E.00808
G1 X65.344 Y54.872 E.12293
G1 X64.807 Y54.872 E.01696
G1 X67.856 Y57.92 E.13615
G1 X67.789 Y58.074 E.0053
G1 X67.756 Y58.358 E.00903
G1 X64.27 Y54.872 E.15569
G1 X64.233 Y54.872 E.00117
G1 X64.233 Y55.372 E.01579
G1 X67.756 Y58.895 E.15734
G1 X67.756 Y59.432 E.01696
G1 X64.233 Y55.909 E.15734
G1 X64.233 Y56.446 E.01696
G1 X67.756 Y59.969 E.15734
G1 X67.756 Y60.506 E.01696
G1 X64.233 Y56.983 E.15734
G1 X64.233 Y57.52 E.01696
G1 X67.756 Y61.044 E.15737
G1 X67.756 Y61.581 E.01696
G1 X64.233 Y58.058 E.15734
G1 X64.233 Y58.595 E.01696
G1 X67.756 Y62.118 E.15734
G1 X67.756 Y62.655 E.01696
G1 X64.233 Y59.132 E.15734
G1 X64.233 Y59.669 E.01696
M73 P0 R115
G1 X67.756 Y63.192 E.15734
G1 X67.756 Y63.729 E.01696
G1 X64.233 Y60.206 E.15734
G1 X64.233 Y60.743 E.01696
G1 X67.756 Y64.266 E.15734
G1 X67.756 Y64.803 E.01696
G1 X64.233 Y61.28 E.15734
G1 X64.233 Y61.817 E.01696
G1 X67.756 Y65.34 E.15734
G1 X67.756 Y65.878 E.01699
G1 X64.233 Y62.354 E.15737
G1 X64.233 Y62.892 E.01699
G1 X67.926 Y66.584 E.16491
M204 S1000
;WIPE_START
G1 F8640
G1 X65.476 Y64.134 E-.8
;WIPE_END
G1 Z.6 F720
G1 X78.795 Y67.785 F10800
G1 Z.2 F720
G1 E.8 F2100
M204 S800
G1 F1200
G1 X79.095 Y68.086 E.01342
G1 X79.095 Y68.623 E.01696
G1 X78.428 Y67.955 E.02981
G1 X77.89 Y67.955 E.01699
G1 X79.095 Y69.16 E.05382
G1 X79.095 Y69.697 E.01696
G1 X77.353 Y67.955 E.0778
G1 X76.816 Y67.955 E.01696
G1 X79.095 Y70.234 E.10178
G1 X79.095 Y70.376 E.00448
G1 X78.701 Y70.376 E.01244
G1 X76.279 Y67.955 E.10815
G1 X75.742 Y67.955 E.01696
G1 X78.163 Y70.376 E.10813
G1 X77.626 Y70.376 E.01696
G1 X75.205 Y67.955 E.10813
G1 X74.668 Y67.955 E.01696
G1 X77.089 Y70.376 E.10813
G1 X76.552 Y70.376 E.01696
G1 X74.131 Y67.955 E.10813
G1 X73.594 Y67.955 E.01696
G1 X76.015 Y70.376 E.10813
G1 X75.478 Y70.376 E.01696
G1 X73.056 Y67.955 E.10815
G1 X72.519 Y67.955 E.01696
G1 X74.941 Y70.376 E.10815
G1 X74.404 Y70.376 E.01696
G1 X71.982 Y67.955 E.10815
G1 X71.445 Y67.955 E.01696
G1 X73.866 Y70.376 E.10813
G1 X73.329 Y70.376 E.01696
G1 X70.908 Y67.955 E.10813
G1 X70.371 Y67.955 E.01696
G1 X72.792 Y70.376 E.10813
G1 X72.255 Y70.376 E.01696
G1 X69.834 Y67.955 E.10813
G1 X69.297 Y67.955 E.01696
G1 X71.718 Y70.376 E.10813
G1 X71.181 Y70.376 E.01696
G1 X68.759 Y67.955 E.10815
G1 X68.415 Y67.926 E.0109
G1 X68.223 Y67.851 E.00651
G1 X67.998 Y67.679 E.00894
G1 X67.871 Y67.506 E.00678
G1 X67.786 Y67.299 E.00707
G1 X67.756 Y66.952 E.011
G1 X64.233 Y63.429 E.15734
G1 X64.233 Y63.966 E.01696
G1 X70.644 Y70.376 E.2863
G1 X70.107 Y70.376 E.01696
G1 X64.233 Y64.503 E.26232
G1 X64.233 Y65.04 E.01696
G1 X69.57 Y70.376 E.23834
G1 X69.032 Y70.376 E.01699
G1 X64.233 Y65.577 E.21433
G1 X64.233 Y66.114 E.01696
G1 X68.511 Y70.392 E.19106
G1 X68.415 Y70.405 E.00306
G1 X68.227 Y70.479 E.00638
G1 X68.127 Y70.545 E.00378
G1 X64.233 Y66.651 E.17391
G1 X64.233 Y67.189 E.01699
G1 X67.87 Y70.826 E.16243
G1 X67.786 Y71.033 E.00705
G1 X67.757 Y71.249 E.00688
G1 X64.233 Y67.726 E.15737
G1 X64.233 Y68.263 E.01696
G1 X67.756 Y71.786 E.15734
G1 X67.756 Y72.323 E.01696
G1 X64.233 Y68.8 E.15734
G1 X64.233 Y69.337 E.01696
G1 X67.756 Y72.86 E.15734
G1 X67.756 Y73.397 E.01696
G1 X64.233 Y69.874 E.15734
G1 X64.233 Y70.411 E.01696
G1 X67.756 Y73.934 E.15734
G1 X67.756 Y74.471 E.01696
G1 X64.233 Y70.948 E.15734
G1 X64.233 Y71.485 E.01696
G1 X67.756 Y75.009 E.15737
G1 X67.756 Y75.546 E.01696
G1 X64.233 Y72.023 E.15734
G1 X64.233 Y72.56 E.01696
G1 X67.756 Y76.083 E.15734
G1 X67.756 Y76.62 E.01696
G1 X64.233 Y73.097 E.15734
G1 X64.233 Y73.634 E.01696
G1 X67.756 Y77.157 E.15734
G1 X67.756 Y77.694 E.01696
G1 X64.233 Y74.171 E.15734
G1 X64.233 Y74.708 E.01696
G1 X67.756 Y78.231 E.15734
G1 X67.756 Y78.768 E.01696
G1 X64.233 Y75.245 E.15734
G1 X64.233 Y75.782 E.01696
G1 X67.756 Y79.306 E.15737
G1 X67.756 Y79.843 E.01696
G1 X64.233 Y76.32 E.15734
G1 X64.233 Y76.857 E.01696
G1 X67.756 Y80.38 E.15734
G1 X67.756 Y80.917 E.01696
G1 X64.233 Y77.394 E.15734
G1 X64.233 Y77.931 E.01696
G1 X67.756 Y81.454 E.15734
G1 X67.756 Y81.991 E.01696
G1 X64.233 Y78.468 E.15734
G1 X64.233 Y79.005 E.01696
G1 X67.756 Y82.528 E.15734
G1 X67.756 Y82.656 E.00404
G1 X67.347 Y82.656 E.01292
G1 X64.233 Y79.542 E.13908
G1 X64.233 Y80.079 E.01696
G1 X66.81 Y82.656 E.11509
G1 X66.273 Y82.656 E.01696
G1 X64.233 Y80.616 E.09111
G1 X64.233 Y81.154 E.01699
G1 X65.736 Y82.656 E.0671
G1 X65.199 Y82.656 E.01696
G1 X64.233 Y81.691 E.04312
G1 X64.233 Y82.228 E.01696
G1 X64.831 Y82.826 E.02671
M204 S1000
;WIPE_START
G1 F8640
G1 X64.233 Y82.228 E-.19527
G1 X64.233 Y81.691 E-.12399
G1 X65.199 Y82.656 E-.31528
G1 X65.736 Y82.656 E-.12399
G1 X65.609 Y82.529 E-.04147
;WIPE_END
G1 Z.6 F720
; stop printing object TextPlatform_1 id:6 copy 0
; printing object TextPlatform_1 id:7 copy 0
G1 X91.974 Y67.474 F10800
G1 Z.2 F720
G1 E.8 F2100
M204 S800
;TYPE:Perimeter
;WIDTH:0.419999
G1 F1200
G1 X92.097 Y67.568 E.00485
G1 X92.362 Y67.634 E.00856
G1 X103.136 Y67.634 E.33781
G1 X103.136 Y70.697 E.09604
G1 X92.255 Y70.697 E.34117
G1 X92.009 Y70.821 E.00864
G1 X91.871 Y70.983 E.00667
G1 X91.797 Y71.263 E.00908
G1 X91.797 Y82.977 E.36728
G1 X87.633 Y82.977 E.13056
G1 X87.633 Y54.551 E.89128
G1 X103.778 Y54.551 E.50621
M73 P1 R115
M73 Q1 S116
G1 X103.778 Y57.751 E.10033
G1 X92.282 Y57.751 E.36045
G1 X91.99 Y57.891 E.01015
G1 X91.879 Y58.024 E.00543
G1 X91.797 Y58.317 E.00954
G1 X91.797 Y67.181 E.27792
G1 X91.935 Y67.43 E.00893
M204 S1000
G1 X92.261 Y67.214 F10800
M204 S800
;TYPE:External perimeter
G1 F1200
G1 X92.362 Y67.257 E.00344
G1 X103.513 Y67.257 E.34963
G1 X103.513 Y71.074 E.11968
G1 X92.362 Y71.074 E.34963
G1 X92.245 Y71.115 E.00389
G1 X92.174 Y71.263 E.00515
G1 X92.174 Y83.354 E.3791
G1 X87.256 Y83.354 E.1542
G1 X87.256 Y54.174 E.91492
G1 X104.156 Y54.174 E.52989
G1 X104.156 Y58.128 E.12397
G1 X92.362 Y58.128 E.36979
G1 X92.238 Y58.175 E.00416
G1 X92.174 Y58.317 E.00488
G1 X92.174 Y67.069 E.27441
G1 X92.217 Y67.179 E.0037
M204 S1000
;WIPE_START
G1 F8640
G1 X92.261 Y67.214 E-.01298
G1 X92.362 Y67.257 E-.02535
G1 X95.661 Y67.257 E-.76167
;WIPE_END
G1 Z.6 F720
G1 X103.628 Y55.47 F10800
G1 Z.2 F720
G1 E.8 F2100
M204 S800
;TYPE:Solid infill
;WIDTH:0.42272
G1 F1200
G1 X103.029 Y54.872 E.02673
G1 X102.492 Y54.872 E.01696
G1 X103.458 Y55.837 E.04312
G1 X103.458 Y56.374 E.01696
G1 X101.955 Y54.872 E.0671
G1 X101.418 Y54.872 E.01696
G1 X103.458 Y56.912 E.09111
G1 X103.458 Y57.431 E.01639
G1 X103.44 Y57.431 E.00057
G1 X100.881 Y54.872 E.11429
G1 X100.344 Y54.872 E.01696
G1 X102.903 Y57.431 E.11429
G1 X102.366 Y57.431 E.01696
G1 X99.807 Y54.872 E.11429
G1 X99.269 Y54.872 E.01699
G1 X101.829 Y57.431 E.11431
G1 X101.291 Y57.431 E.01699
